resources/haticons/SVG/hexo.svg

<!-- Generated by IcoMoon.io -->
<svg version="1.1" xmlns="http://www.w3.org/2000/svg" width="24" height="24" viewBox="0 0 24 24">
<title>hexo</title>
<path fill="#0e83cd" d="M12 0.007l-10.43 6.049v11.994l10.43 5.945 10.43-6.049v-11.994zM16.798 17.112l-0.939 0.521-0.939-0.521v-4.172h-5.84v4.172l-0.94 0.521-0.938-0.521v-10.222l0.939-0.521 0.939 0.521v4.172h5.84v-4.172l0.94-0.521 0.938 0.521z"></path>
</svg>

<svg xmlns="http://www.w3.org/2000/svg" width="24" height="24"><path fill="#0e83cd" d="M12 .007L1.57 6.056V18.05L12 23.995l10.43-6.049V5.952zm4.798 17.105l-.939.521-.939-.521V12.94H9.08v4.172l-.94.521-.938-.521V6.89l.939-.521.939.521v4.172h5.84V6.89l.94-.521.938.521z"/></svg>
